X:335
T:Spelmanspolskan.
R:polska
S:Efter »Florsen» i Burs.
O:Gotland, Burs
M:3/4
L:1/16
K:D
A2|(LF2>>A2) (LE2>>A2) LD4|d2(fd) c2(ec) d2ef|.g2.b2.f2.a2.e2.g2|
w:Ja en_ sup_ till skall spel--man-nen_ ha, tra-la la la la la la la
Lf2ed dcec A3G|LF4 LE4 LD4|d2fd c2ec d2ef|.g2.b2.f2.a2.e2.g2|
w:ču fa-li ra la la la la etc.
fedc Lc4 d2::ef|gfed dcec LA2ef|gfed dcec LA2ef|.g2.b2.f2.a2.e2.g2|
gfed dcec LA4|gfed dcec LA2A2|gfed dcec LA2 ef|.g2.b2.f2.a2.e2.g2|
fedc Lc4 d2:|
